svg/Social/thumbs-down.svg

<svg xmlns="http://www.w3.org/2000/svg" width="24" height="24" viewBox="0 0 24 24">
	<g fill="none" stroke="currentColor" stroke-width="2" stroke-linecap="round" stroke-linejoin="round">
		<path d="M7 4h11l3 7v3h-7l1 6l-3 1l-5 -8h-4v-9h4v9" stroke-dasharray="80" stroke-dashoffset="80">
			<animate attributeName="stroke-dashoffset" values="80;0" dur="0.6s" fill="freeze" />
		</path>
	</g>
</svg>

<svg xmlns="http://www.w3.org/2000/svg" width="24" height="24" viewBox="0 0 24 24">
    <path d="M7 4H18L21 11V14H14L15 20L12 21L7 13H3V4H7V13" fill="none" stroke="currentColor" stroke-width="2" stroke-linecap="round" stroke-linejoin="round" stroke-dasharray="80" stroke-dashoffset="80">
        <animate attributeName="stroke-dashoffset" values="80;0" dur="0.8s" fill="freeze" />
    </path>
</svg>
